!!!OTL: 672. Die Thraene.
!!!COM: Volksweise
!!!ODT: 1880-90
!!!ARE: Europa, Mitteleuropa, Deutschland, Westerwald; Dillkreis
!!!SCT: B0672
!!!TXL: @@DE
!!!YEM: Copyright 1995, estate of Helmut Schaffrath.
**kern	**text
*ICvox	*
*Ivox	*
*clefG2	*
*M4/4	*
*met(c)	*
*k[f#]	*
*G:	*
!LO:TX:a:t=Ernſt u. ruhig.	!
{8d	Macht
8g	man
8b	ins
=1	=1
4.dd	Le-
8ee	-ben
8dd	kaum
8a	den
8dd	er-
8cc	-ſten
=2	=2
4b	Schritt,
4r	.
8r}	.
{8b	bringt
8cc	man
8b	als
=3	=3
4.e	Kind
8a	ſchon
8g	ei-
8f#	-ne
8e	Thräne
8f#	.
=4	=4
4g	mit.
4r	.
8r}	.
{8d	Und
8g	Freu-
8b	-den-
=5	=5
4.dd	-thrä-
8ee	-nen
8dd	bringt
8a	als
8dd	er-
8cc	-ſten
=6	=6
4b	Gruß
4r	.
8r}	.
{8b	dem
8cc	Kind
8b	die
=7	=7
4.e	Mut-
8a	-ter
8g	mit
8f#	dem
8e	er-
8f#	-ſten
=8	=8
4g	Kuß.
4r	.
8r}	.
{8e	Man
8e	wächſt
8f#	em-
=9	=9
4.g	-por,
8g	wohnt
8f#	ʒwiſchen
8g	.
8a	Freud'u.
8e	.
=10	=10
4f#	Schmerʒ;
4r	.
8r}	.
{8d	u.
8f#	taucht
8a	die
=11	=11
4.dd	Lie-
8ee	-be
8dd	in
8a	das
8dd	junge
8cc	.
=12	=12
4b	Herʒ,
4r	.
8r}	.
{8d	dann
8d	of-
8d	-fen-
=13	=13
4.g	-bart
8g	das
8g	Herʒ
8b	der
8dd	Jungfrau
8dd	.
=14	=14
4ee	ſich,
4r	.
8r}	.
{8e	und
8e	ei-
8e	-ne
=15	=15
8dd	Thrä-
8ee	-ne
4.dd	ſpricht:
8a	"Jch
8dd	lie-
8cc	-be
=16	=16
4b	dich!"
4r	.
8r}	.
{8gg	und
8dd	ei-
8b	-ne
=17	=17
8a	Thrä-
8cc	-ne
4ee	ſpricht:
8r	"Jch
8d	lie-
8b	-be
8a	dich!"
=18	=18
2g	.
8r}	.
==	==
!!!AGN: Moral - Lied, Lebenslauf, Klage
!!!GTL: Didaktische Lieder: Betrachtungen, Vergleiche und Moralisationen
!!!ONB: ESAC (Essen Associative Code) Database: BOEHME
!!!AMT: simple quadruple
!!!AIN: vox
!!!EED: Helmut Schaffrath
!!!EEV: 1.0
!!Volksweiſe aus dem Weſterwald und Dillkreiſe. 1880-90 vielfach.
!!@@COMMENT:"Gedicht von Konrad Hafner um 1849. Sehr beliebt iſt ſeit 1850 die Mel. von F. Gumbert.
!!Die erſte Volksmelodie hier braucht ſich vor Gumberts Muſik nicht ʒu verſtecken."
!!@@END:
!!!Text: K. Hafner
!!!URL-scan: https://archive.org/details/BoehmeVtLieder1895/page/n523/mode/2up
!!!ENC: Anna Maria Matuszewska
!!!EEV: 2024/16/07
*-	*-
